T: Catherine Ogie
M: 4/4
L: 1/8
K: Amin
|:AG|E2 AB A3B|cdBc A2 Bc|d3e dBAB|G3A B2 AG|
E2 AB A3B|cBAG g3a|bage degB|A4 A2 e2||
|:dega b3a|gede g2 dc|B2 ge dBAB|G3A B2 AB|
c2 BA A3E|ABcd e2 dc|dega gedB|1A4 A2 e2:|2A4 A2||
